X:136
T:Hell On the Wabash
S:John Greig, Edinburgh (probably from Art Rosenbaum)
Z:Nigel Gatherer
M:4/4
L:1/8
K:G
z2|g2 dB GBGB|D2 G2 G2 B2|cBAG F2 A2|BAGF G3 z|g2 dB GBGB|
D2 G2 G2 B2|cBAGFGAF|G3 G G2::Bc|d2 d2 dBdB|e2 e2 e2 eg|f2 d2 f2 d2|
BAGF G2 Bc|d2 d2 dBdB|e2 e2 e2 eg|f2 d2 f2 d2|BAGF G2:|
<end>
<start>
